material/.icons/material/stairs.svg

<svg xmlns="http://www.w3.org/2000/svg" viewBox="0 0 24 24"><path d="M15 5v4h-4v4H7v4H3v3h7v-4h4v-4h4V8h4V5h-7z"/></svg>

<?xml version="1.0" encoding="UTF-8"?><!DOCTYPE svg PUBLIC "-//W3C//DTD SVG 1.1//EN" "http://www.w3.org/Graphics/SVG/1.1/DTD/svg11.dtd"><svg xmlns="http://www.w3.org/2000/svg" xmlns:xlink="http://www.w3.org/1999/xlink" version="1.1" id="mdi-stairs" width="24" height="24" viewBox="0 0 24 24"><path d="M15,5V9H11V13H7V17H3V20H10V16H14V12H18V8H22V5H15Z" /></svg>
